my-site/themes/moving-test/assets/images/yelp.svg

<svg width="42" height="52" viewBox="0 0 42 52" fill="none" xmlns="http://www.w3.org/2000/svg">
<path d="M1.04654 24.9149C0.168297 26.2641 -0.199839 30.5072 0.106192 33.3203C0.212665 34.2481 0.390087 35.0227 0.642906 35.4866C0.993305 36.1249 1.58323 36.5078 2.253 36.5293C2.68324 36.5504 2.95382 36.4782 11.0487 33.9799C11.0487 33.9799 14.6459 32.8778 14.6636 32.8691C15.5596 32.6479 16.1673 31.8563 16.2249 30.8476C16.2825 29.8092 15.7282 28.8941 14.8056 28.5664L12.264 27.5748C3.56149 24.1318 3.17117 23.9956 2.73203 23.9913C2.05784 23.9702 1.46347 24.2936 1.04654 24.9149ZM20.5097 50.5737C20.6515 50.182 20.6694 49.9141 20.6915 41.7512C20.6915 41.7512 20.7094 38.1463 20.7136 38.1082C20.7713 37.223 20.177 36.4185 19.2012 36.0569C18.1944 35.6866 17.112 35.9164 16.5044 36.6398C16.5044 36.6398 14.7302 38.6615 14.7213 38.6615C8.62688 45.5305 8.36961 45.8497 8.22324 46.2539C8.13009 46.4922 8.09906 46.7476 8.12566 47.0029C8.16114 47.3689 8.33414 47.7265 8.61801 48.0627C10.0329 49.6755 16.8104 52.0675 18.9749 51.7099C19.7334 51.5864 20.2791 51.1823 20.5097 50.5737ZM34.2643 47.735C36.309 46.9518 40.7667 41.5129 41.0817 39.4148C41.1925 38.6869 40.953 38.0572 40.4296 37.657C40.0883 37.4102 39.8264 37.3124 31.7316 34.763C31.7316 34.763 28.1832 33.6395 28.1345 33.6181C27.2739 33.2991 26.2937 33.5969 25.6371 34.3758C24.9497 35.1759 24.8476 36.2357 25.3976 37.0315L26.8258 39.2614C31.6295 46.7476 31.9977 47.2753 32.3437 47.535C32.8759 47.9392 33.5546 48.0074 34.2643 47.735ZM30.0816 28.4643C39.2764 26.3278 39.6357 26.213 39.9951 25.9832C40.5538 25.6214 40.8333 25.0212 40.7846 24.2894C40.7846 24.268 40.7891 24.2426 40.7846 24.2169C40.5494 22.0466 36.593 16.4117 34.6414 15.4967C33.9493 15.1775 33.2574 15.1988 32.6853 15.569C32.3303 15.7903 32.0687 16.1265 27.1453 22.5912C27.1453 22.5912 24.9231 25.4981 24.8965 25.5277C24.311 26.213 24.3021 27.1919 24.8742 28.0345C25.4687 28.907 26.4711 29.3284 27.3892 29.0856C27.3892 29.0856 27.3537 29.1496 27.3448 29.1581C27.7974 28.992 28.6045 28.8005 30.0816 28.4643ZM20.8513 21.1783C20.6915 17.6799 19.596 2.10768 19.4673 1.38842C19.281 0.73302 18.7489 0.269138 17.986 0.081882C15.635 -0.475649 6.66194 1.93743 4.99861 3.5802C4.46192 4.11645 4.26673 4.77184 4.42642 5.3549C4.68813 5.86986 15.808 22.6551 15.808 22.6551C17.4491 25.2127 18.7931 24.8128 19.2323 24.6808C19.667 24.5573 21.0021 24.1574 20.8513 21.1783Z" fill="#C01F1F"/>
</svg>

<svg xmlns="http://www.w3.org/2000/svg" width="42" height="52" fill="none" viewBox="0 0 42 52"><path fill="#c01f1f" d="M1.047 24.915C.168 26.265-.2 30.507.107 33.32c.106.928.283 1.703.536 2.167.35.638.94 1.02 1.61 1.042.43.021.7-.05 8.796-2.55 0 0 3.597-1.101 3.615-1.11.896-.221 1.503-1.013 1.56-2.021.058-1.039-.496-1.954-1.418-2.282l-2.542-.991c-8.703-3.443-9.093-3.58-9.532-3.584-.674-.02-1.269.303-1.685.924M20.51 50.574c.141-.392.16-.66.181-8.823 0 0 .018-3.605.023-3.643.057-.885-.537-1.69-1.513-2.051-1.007-.37-2.089-.14-2.697.583 0 0-1.774 2.021-1.783 2.021-6.094 6.87-6.351 7.189-6.498 7.593a1.6 1.6 0 0 0-.097.749c.035.366.208.724.492 1.06 1.415 1.612 8.192 4.005 10.357 3.647.758-.124 1.304-.528 1.535-1.136m13.754-2.839c2.045-.783 6.503-6.222 6.818-8.32.11-.728-.129-1.358-.652-1.758-.342-.247-.604-.345-8.698-2.894 0 0-3.549-1.123-3.597-1.145-.861-.319-1.841-.021-2.498.758-.687.8-.79 1.86-.24 2.656l1.429 2.23c4.804 7.486 5.172 8.013 5.518 8.273.532.404 1.21.472 1.92.2m-4.182-19.27c9.194-2.137 9.554-2.252 9.913-2.482.559-.362.838-.962.79-1.694 0-.021.004-.046 0-.072-.236-2.17-4.192-7.805-6.144-8.72-.692-.32-1.384-.298-1.956.072-.355.221-.616.557-5.54 7.022 0 0-2.222 2.907-2.248 2.937-.586.685-.595 1.664-.023 2.507.595.872 1.597 1.293 2.515 1.05 0 0-.035.065-.044.073.452-.166 1.26-.358 2.737-.694m-9.23-7.287c-.16-3.498-1.256-19.07-1.385-19.79C19.281.733 18.75.27 17.986.082 15.635-.476 6.662 1.937 4.999 3.58c-.537.536-.732 1.192-.573 1.775.262.515 11.382 17.3 11.382 17.3 1.641 2.558 2.985 2.158 3.424 2.026.435-.124 1.77-.524 1.62-3.503"/></svg>
